modules/entypo/icons/plus-squared.svg

<svg height="1000" width="800" xmlns="http://www.w3.org/2000/svg"><path d="M700 100c28 0 51.667 9.667 71 29s29 43 29 71v600c0 26.667-9.667 50-29 70s-43 30-71 30H100c-26.667 0-50-10-70-30S0 826.667 0 800V200c0-28 10-51.667 30-71s43.333-29 70-29h600m-50 450V450H450V250H350v200H150v100h200v200h100V550h200"/></svg>

<svg height="1000px" width="800px" xmlns="http://www.w3.org/2000/svg">
  <g>
    <path d="M700 100c28 0 51.667 9.667 71 29c19.333 19.333 29 43 29 71c0 0 0 600 0 600c0 26.667 -9.667 50 -29 70c-19.333 20 -43 30 -71 30c0 0 -600 0 -600 0c-26.667 0 -50 -10 -70 -30c-20 -20 -30 -43.333 -30 -70c0 0 0 -600 0 -600c0 -28 10 -51.667 30 -71c20 -19.333 43.333 -29 70 -29c0 0 600 0 600 0c0 0 0 0 0 0m-50 450c0 0 0 -100 0 -100c0 0 -200 0 -200 0c0 0 0 -200 0 -200c0 0 -100 0 -100 0c0 0 0 200 0 200c0 0 -200 0 -200 0c0 0 0 100 0 100c0 0 200 0 200 0c0 0 0 200 0 200c0 0 100 0 100 0c0 0 0 -200 0 -200c0 0 200 0 200 0c0 0 0 0 0 0" />
  </g>
</svg>
